X: 13348
T: Flatworld
R: waltz
M: 3/4
K: Bminor
|:f ef|"Bm"df cf Bf|"G"G2 Bc dB|"Em"g2 gf ed|"F#m"c3 f ef|
"Bm"df cf Bf|"G"G2 gf ed|"A"cB ce dc|1 "Bm"B3:|2 "Bm"B4 F2||
|:"Bm"Bc dB ba|"G"g2 gf ed|"A"cd ec ag|"F#m"f2 fe dc|
"G"Bc dB gf|"Em"e2 ed cB|1 "F#m"c2 ce ^de|c3 c =dc:|2 "A"cB ce dc|"Bm"B3||

